svg/color/sgd.svg

<svg width="64" height="65" viewBox="0 0 64 65" fill="none" xmlns="http://www.w3.org/2000/svg">
<rect y="0.303711" width="64" height="64" rx="32" fill="#3BC726"/>
<rect x="0.5" y="0.803711" width="63" height="63" rx="31.5" stroke="#070B14" stroke-opacity="0.15"/>
<path d="M43.0926 30.714V21.369C45.3918 21.9386 46.9748 23.7728 46.9748 25.9125H50C50 22.2605 47.0859 19.2215 43.0926 18.607V16H40.0674V18.6256C36.3161 19.2798 33.321 22.2799 33.321 25.8856C33.321 29.492 36.3161 32.5031 40.0674 33.159V42.4924C38.0102 41.8882 36.3865 40.0807 36.3865 37.9799H33.3613C33.3613 41.5941 36.3161 44.6085 40.0674 45.266V48H43.0926V45.2857C47.0859 44.6731 49.9596 41.6433 49.9596 38.0001C49.9596 34.3558 47.0859 31.3255 43.0926 30.714ZM36.3463 25.8923C36.3463 23.7805 38.0102 21.9933 40.0674 21.397V30.3859C38.0102 29.7882 36.3463 28.0022 36.3463 25.8923ZM43.0926 42.526V33.4755C45.3918 34.039 46.9345 35.8509 46.9345 38C46.9345 40.1508 45.3918 41.9639 43.0926 42.526Z" fill="black"/>
<path d="M22.3193 21.1852C25.2385 21.1852 27.6135 23.3266 27.6135 25.9125H30.6386C30.6386 21.8182 26.9066 18.4916 22.3193 18.4916C17.732 18.4916 14 21.801 14 25.8855C14 29.97 17.7211 33.293 22.3195 33.293C25.2237 33.293 27.6135 35.4009 27.6135 38.0002C27.6135 40.5993 25.2385 42.7072 22.3193 42.7072C19.4002 42.7072 17.0252 40.5657 17.0252 37.9799H14C14 42.0741 17.732 45.4008 22.3193 45.4008C26.9066 45.4008 30.6386 42.0846 30.6386 37.9999C30.6386 33.9155 26.9178 30.5993 22.3195 30.5993C19.4152 30.5993 17.0252 28.4914 17.0252 25.8921C17.0252 23.2927 19.4001 21.1852 22.3193 21.1852Z" fill="black"/>
</svg>

<svg xmlns="http://www.w3.org/2000/svg" width="64" height="65" fill="none" viewBox="0 0 64 65"><rect width="64" height="64" y=".304" fill="#3BC726" rx="32"/><rect width="63" height="63" x=".5" y=".804" stroke="#070B14" stroke-opacity=".15" rx="31.5"/><path fill="#000" d="M43.093 30.714v-9.345c2.299.57 3.882 2.404 3.882 4.544H50c0-3.652-2.914-6.692-6.907-7.306V16h-3.026v2.626c-3.75.654-6.746 3.654-6.746 7.26s2.995 6.617 6.746 7.273v9.333c-2.057-.604-3.68-2.411-3.68-4.512H33.36c0 3.614 2.955 6.629 6.706 7.286V48h3.026v-2.714c3.993-.613 6.867-3.643 6.867-7.286 0-3.644-2.874-6.674-6.867-7.286m-6.747-4.822c0-2.111 1.664-3.899 3.721-4.495v8.989c-2.057-.598-3.72-2.384-3.72-4.494m6.747 16.634v-9.05c2.299.563 3.841 2.375 3.841 4.524s-1.542 3.964-3.841 4.526M22.32 21.185c2.918 0 5.293 2.142 5.293 4.728h3.026c0-4.095-3.732-7.421-8.32-7.421-4.587 0-8.319 3.309-8.319 7.393 0 4.085 3.721 7.408 8.32 7.408 2.904 0 5.293 2.108 5.293 4.707 0 2.6-2.375 4.707-5.294 4.707s-5.294-2.141-5.294-4.727H14c0 4.094 3.732 7.42 8.32 7.42 4.587 0 8.319-3.315 8.319-7.4 0-4.084-3.721-7.4-8.32-7.4-2.904 0-5.294-2.109-5.294-4.708s2.375-4.707 5.294-4.707"/></svg>
